build/img/features/icon-2.svg

<svg width="94" height="80" viewBox="0 0 94 80" fill="none" xmlns="http://www.w3.org/2000/svg">
<path fill-rule="evenodd" clip-rule="evenodd" d="M47.8352 38.73C47.7992 34.7367 47.8329 30.727 47.8329 26.7301C47.8329 22.8929 47.1308 20.6276 49.058 19.0288L53.8573 14.708C56.4284 12.6 60.9616 8.0846 63.2886 6.21318C64.3777 5.33689 65.1797 4.37788 66.8477 3.63909C70.0976 2.19999 72.9755 3.8535 75.2735 6.1083C77.5761 8.3666 82.0558 12.1665 84.7024 14.6008C85.1871 15.0471 85.7369 15.5575 86.2704 16.0213C87.4595 17.0548 90.406 19.4553 90.7606 20.4901C91.2022 21.7812 90.9012 41.2295 90.9012 44.3629C90.9012 46.8939 91.0976 73.2465 90.8675 74.3617C90.4665 76.3018 88.9159 76.5046 87.0538 76.4976L53.7295 76.5384C54.4513 74.6984 54.3839 72.3248 53.6144 69.9395C54.3339 69.2951 54.6036 69.4128 55.3463 68.3768C56.6121 66.6115 56.4912 65.1013 56.4249 62.9234C56.3831 61.5449 56.0948 61.3258 55.7857 60.298C56.8097 59.3017 57.9755 58.6072 58.208 56.2604C58.2905 55.4237 58.287 53.9252 58.2208 53.0827C58.1173 51.7799 57.7233 51.4338 57.4118 50.5028C58.2789 49.8863 59.0681 48.8912 59.3715 47.3752C59.5935 46.267 59.5482 43.6032 59.2494 42.5428C58.2917 39.1449 55.4184 38.7277 52.6566 38.7277L47.8387 38.7289L47.8352 38.73ZM66.3351 38.8815C68.6121 38.7941 71.3215 38.5937 73.179 39.5865C78.7059 42.5416 77.3146 51.7426 70.0871 51.7473L66.3374 51.7321L66.3351 38.8815ZM66.3583 54.2876C68.7237 54.2549 71.4192 54.5637 73.4812 53.7469C79.9554 51.1798 80.5017 43.0357 76.5695 38.9118C72.8058 34.9662 64.5474 36.2923 64.1476 36.7304C63.4095 37.5415 63.7919 49.5997 63.7919 51.7228C62.8527 51.7706 60.7442 51.3651 60.7954 53.0594C60.8384 54.5055 62.4819 54.2608 63.7861 54.2887L63.7977 56.4619C62.5156 56.5039 60.7128 56.2522 60.7965 57.8207C60.8732 59.2469 62.5086 58.9976 63.8035 59.0372C63.7675 60.5579 63.7954 62.1019 63.793 63.626C63.7907 65.0803 63.4908 66.9773 65.1553 66.883C66.7001 66.7956 66.3397 64.916 66.3386 63.4559C66.3386 61.99 66.3142 60.5031 66.3479 59.0395C68.1449 58.9871 69.986 59.0232 71.7865 59.0232C73.1801 59.0232 75.7512 59.4369 75.6501 57.6866C75.5548 56.0448 73.0569 56.4771 71.6168 56.4771C69.8744 56.4771 68.0867 56.5167 66.3362 56.4631L66.3583 54.2876ZM66.9976 15.8674C66.3502 12.5115 71.2204 11.9731 71.7249 14.842C72.3049 18.1304 67.5613 18.7911 66.9976 15.8674ZM67.9298 10.0073C60.8918 11.9312 63.6838 22.4535 70.6915 20.7045C73.2894 20.0554 75.5757 17.3951 74.7074 13.8946C74.0879 11.3963 71.2715 9.09256 67.9286 10.0073H67.9298ZM46.8298 76.4242C46.7577 76.3939 46.6868 76.3601 46.6159 76.324C46.4857 76.3636 46.3521 76.3986 46.2149 76.4277C40.223 76.4661 32.3156 76.7283 27.4838 75.76C22.8123 74.8231 18.4489 72.6103 14.6782 71.692L14.6794 71.6909C14.5411 66.9179 14.8363 61.3538 14.6689 56.9152C14.6097 55.3584 13.1033 54.3225 11.863 55.3479C10.8541 56.18 11.1715 57.9418 11.1715 59.5499V74.6145L3.56392 74.6402V43.059L11.1715 43.1173C11.1738 44.5144 11.1715 45.8964 11.1715 47.2796C11.1715 48.6232 10.9308 50.2347 11.7759 50.9444C12.6581 51.6832 13.9994 51.3348 14.4609 50.4387C14.8235 49.7337 14.6748 47.3414 14.6678 46.4022C14.6608 45.3896 14.5143 45.3697 15.0374 44.758C15.364 44.3769 15.5825 44.025 15.9022 43.4948L27.0769 25.0218C27.6942 24.1513 28.8216 23.7493 29.7829 24.6221C32.9724 27.5131 30.9138 31.4483 29.8782 33.9652C29.4574 34.986 29.082 35.9147 28.6798 36.8959C28.3486 37.7023 27.6674 39.1332 27.4524 39.9349C26.6201 43.045 31.2614 42.2387 33.4152 42.2387L54.399 42.2631C55.7252 42.4484 55.9879 43.5158 55.9856 44.8978C55.9763 48.6826 55.2638 48.1547 50.7783 48.1547C47.9887 48.1547 45.199 48.1547 42.4094 48.1547C40.9542 48.1547 39.693 47.9893 39.1897 49.1848C38.6457 50.4736 39.5396 51.5445 40.6624 51.6494C43.7635 51.9419 51.2142 51.4338 53.1367 51.6867C54.4734 51.8615 54.7454 52.9277 54.743 54.2899C54.7337 58.1108 53.955 57.5783 49.6531 57.5783C46.824 57.5783 43.9809 57.5515 41.1529 57.5759C39.8929 57.5876 38.9212 58.1819 39.0584 59.5313C39.206 60.975 40.3858 61.0927 41.7829 61.0869C44.6144 61.0764 47.447 61.0962 50.2785 61.0857C51.6163 61.0811 52.6659 61.3235 52.8821 62.575C53.0727 63.6808 53.0693 65.6583 52.4567 66.3702C51.6791 67.2745 50.1692 67.0006 48.7779 67.0006L40.4811 67.0356C39.4873 67.1999 38.5969 68.406 39.2537 69.5957C39.8534 70.6829 41.0285 70.5104 42.4071 70.5104C43.8228 70.5104 45.2386 70.5104 46.6543 70.5104C47.9875 70.5104 49.5055 70.2844 50.2052 71.1444C50.7713 71.84 50.7771 73.8338 50.6028 74.9222C50.3866 76.275 49.2847 76.43 47.9038 76.4265C47.5539 76.4254 47.1948 76.4254 46.8275 76.4265L46.8298 76.4242ZM50.6109 79.6077C56.4575 79.8128 81.5594 79.617 85.3243 79.617C88.4196 79.617 89.8249 79.927 91.945 78.2408C93.7024 76.8437 94.0012 75.2647 94 72.2315L93.9709 24.0535C93.9721 20.8932 94.2418 19.4402 92.532 17.4592L75.6176 2.29787C73.9845 1.09764 72.3153 0.153772 69.9197 0.0162703C64.8752 -0.275047 61.838 3.41536 59.4308 5.4942L49.9147 14.0613C45.979 17.5058 44.6888 18.1246 44.6911 22.7938C44.6934 28.0142 44.8631 33.5399 44.6795 38.7289L31.7775 38.7277C32.2715 35.7166 35.9561 31.6685 34.7833 26.6299C33.7116 22.0247 29.6492 19.0894 25.8693 21.4211C24.3257 22.3731 23.5725 24.0255 22.4985 25.8107C21.8313 26.9189 13.9297 40.1726 13.5577 40.5362C12.0885 39.6867 12.4175 39.6051 10.1846 39.6005C8.33068 39.597 3.23846 39.2696 1.84365 40.041C-0.528693 41.3531 0.0664268 44.307 0.0664268 47.0256V73.3222C0.0617774 78.9284 3.08387 78.1441 8.43646 78.1441C10.5159 78.1441 13.903 78.6161 14.5469 75.3813C16.0858 75.7344 18.1583 76.5605 19.6775 77.0802C27.1293 79.6252 28.8786 79.9293 37.2893 79.9293C39.8069 79.9293 48.8476 80.2195 50.5679 79.624L50.6109 79.6077Z" fill="#02345D"/>
</svg>

<svg xmlns="http://www.w3.org/2000/svg" width="94" height="80" fill="none" viewBox="0 0 94 80"><path fill="#02345D" fill-rule="evenodd" d="M47.835 38.73c-.036-3.993-.002-8.003-.002-12 0-3.837-.702-6.102 1.225-7.701l4.8-4.321c2.57-2.108 7.104-6.623 9.43-8.495 1.09-.876 1.892-1.835 3.56-2.574 3.25-1.439 6.127.215 8.426 2.47 2.302 2.258 6.782 6.057 9.428 8.492.485.446 1.035.956 1.568 1.42 1.19 1.034 4.136 3.434 4.49 4.47.442 1.29.141 20.739.141 23.872 0 2.53.197 28.883-.033 29.999-.401 1.94-1.952 2.143-3.814 2.136l-33.324.04c.721-1.84.654-4.213-.116-6.599.72-.644.99-.526 1.732-1.562 1.266-1.765 1.145-3.276 1.079-5.454-.042-1.378-.33-1.597-.64-2.625 1.025-.996 2.19-1.69 2.423-4.038.083-.836.079-2.335.013-3.177-.104-1.303-.498-1.65-.81-2.58.868-.617 1.657-1.612 1.96-3.128.222-1.108.177-3.772-.122-4.832-.957-3.398-3.83-3.815-6.592-3.815h-4.818zm18.5.152c2.277-.088 4.987-.288 6.844.705 5.527 2.955 4.136 12.156-3.092 12.16l-3.75-.015zm.023 15.406c2.366-.033 5.061.276 7.123-.541 6.474-2.567 7.02-10.711 3.089-14.835-3.764-3.946-12.023-2.62-12.422-2.182-.738.812-.356 12.87-.356 14.993-.94.048-3.048-.358-2.997 1.336.043 1.447 1.687 1.202 2.991 1.23l.012 2.173c-1.282.042-3.085-.21-3.001 1.359.076 1.426 1.712 1.177 3.007 1.216-.037 1.52-.009 3.065-.011 4.589-.002 1.454-.302 3.351 1.362 3.257 1.545-.087 1.185-1.967 1.184-3.427 0-1.466-.025-2.953.009-4.417 1.797-.052 3.638-.016 5.439-.016 1.393 0 3.964.414 3.863-1.336-.095-1.642-2.593-1.21-4.033-1.21-1.743 0-3.53.04-5.28-.014zm.64-38.42c-.648-3.357 4.222-3.895 4.727-1.026.58 3.288-4.164 3.95-4.727 1.025m.932-5.86c-7.038 1.923-4.246 12.446 2.761 10.697 2.598-.65 4.885-3.31 4.016-6.81-.62-2.499-3.435-4.802-6.778-3.888m-21.1 66.416a3 3 0 0 1-.214-.1 5 5 0 0 1-.401.104c-5.992.038-13.9.3-18.731-.668-4.672-.937-9.035-3.15-12.806-4.068l.001-.001c-.138-4.773.157-10.337-.01-14.776-.06-1.557-1.566-2.593-2.806-1.567-1.009.832-.691 2.594-.691 4.202v15.065l-7.608.025V43.06l7.608.058c.002 1.397 0 2.78 0 4.163 0 1.343-.241 2.955.604 3.664.882.74 2.223.39 2.685-.505.362-.705.214-3.098.207-4.037-.007-1.012-.154-1.032.37-1.644.326-.381.544-.733.864-1.263l11.175-18.473c.617-.87 1.745-1.273 2.706-.4 3.19 2.891 1.13 6.826.095 9.343-.42 1.021-.796 1.95-1.198 2.93-.331.807-1.013 2.238-1.228 3.04-.832 3.11 3.81 2.304 5.963 2.304l20.984.024c1.326.185 1.589 1.253 1.587 2.635-.01 3.785-.722 3.257-5.208 3.257H42.41c-1.455 0-2.716-.166-3.22 1.03-.543 1.289.35 2.36 1.473 2.464 3.102.293 10.552-.215 12.475.038 1.336.175 1.608 1.24 1.606 2.603-.01 3.82-.788 3.288-5.09 3.288-2.829 0-5.672-.027-8.5-.002-1.26.012-2.232.606-2.095 1.955.148 1.444 1.328 1.562 2.725 1.556 2.831-.01 5.664.01 8.496-.001 1.337-.005 2.387.238 2.603 1.489.19 1.106.187 3.083-.425 3.795-.778.904-2.288.63-3.68.63l-8.296.036c-.994.164-1.884 1.37-1.227 2.56.6 1.087 1.775.914 3.153.914h4.247c1.333 0 2.851-.226 3.551.634.566.696.572 2.69.398 3.778-.216 1.353-1.318 1.508-2.7 1.505q-.525-.003-1.075 0zm3.78 3.184c5.848.205 30.95.009 34.714.009 3.096 0 4.5.31 6.621-1.376 1.757-1.397 2.056-2.976 2.055-6.01l-.03-48.177c.002-3.16.272-4.614-1.438-6.595L75.618 2.298C73.985 1.098 72.315.154 69.92.016c-5.045-.291-8.082 3.4-10.49 5.478l-9.515 8.567c-3.936 3.445-5.226 4.064-5.224 8.733.002 5.22.172 10.746-.012 15.935l-12.902-.001c.495-3.011 4.18-7.06 3.006-12.098-1.071-4.605-5.134-7.54-8.914-5.209-1.543.952-2.296 2.605-3.37 4.39-.668 1.108-8.57 14.362-8.941 14.725-1.47-.85-1.14-.93-3.373-.936-1.854-.003-6.947-.33-8.341.441C-.53 41.353.066 44.307.066 47.026v26.296c-.004 5.606 3.018 4.822 8.37 4.822 2.08 0 5.467.472 6.11-2.763 1.54.353 3.612 1.18 5.131 1.7 7.452 2.544 9.202 2.848 17.612 2.848 2.518 0 11.559.29 13.279-.305z" clip-rule="evenodd"/></svg>
